build/system/DoubleArrowLeftSolid.svg

<svg xmlns="http://www.w3.org/2000/svg" fill="none" viewBox="0 0 24 24" focusable="false"><path d="M0 0H24V24H0z"/><path fill="#74767B" fill-rule="evenodd" d="M12 3C7.02944 3 3 7.02944 3 12C3 16.9706 7.02944 21 12 21C16.9706 21 21 16.9706 21 12C21 7.02944 16.9706 3 12 3ZM10.9621 15.3311C11.1421 15.3311 11.3121 15.2612 11.4421 15.1211C11.6821 14.8511 11.6621 14.4411 11.4021 14.2011L8.9023 11.9533L11.3979 9.79701C11.6679 9.55701 11.6779 9.14701 11.4379 8.87701C11.1979 8.61701 10.7879 8.59701 10.5179 8.83701L7.5323 11.4333C7.2223 11.7133 7.2223 12.1933 7.5323 12.4733L10.5221 15.1611C10.6521 15.2812 10.8021 15.3311 10.9621 15.3311ZM14.862 15.3312C15.042 15.3312 15.212 15.2612 15.342 15.1212C15.582 14.8512 15.562 14.4412 15.302 14.2012L12.8022 11.9533L15.2978 9.79703C15.5678 9.55703 15.5778 9.14703 15.3378 8.87703C15.0978 8.61703 14.6878 8.59703 14.4178 8.83703L11.4322 11.4333C11.1222 11.7133 11.1222 12.1933 11.4322 12.4733L14.422 15.1612C14.552 15.2812 14.702 15.3312 14.862 15.3312Z"/></svg>

<svg xmlns="http://www.w3.org/2000/svg" fill="none" viewBox="0 0 24 24" focusable="false"><path fill="#74767B" fill-rule="evenodd" d="M12 3c-4.98 0-9 4.02-9 9 0 4.97 4.02 9 9 9a9 9 0 0 0 9-9c0-4.98-4.03-9-9-9m-1.04 12.33c.18 0 .35-.07.48-.21.24-.27.22-.68-.04-.92l-2.5-2.25 2.49-2.16a.65.65 0 0 0 .04-.92.66.66 0 0 0-.92-.04l-2.98 2.6c-.31.28-.31.76 0 1.04l2.99 2.69c.13.12.28.17.44.17m3.9 0c.18 0 .35-.07.48-.21.24-.27.22-.68-.04-.92l-2.5-2.25 2.49-2.16a.65.65 0 0 0 .04-.92.66.66 0 0 0-.92-.04l-2.98 2.6c-.31.28-.31.76 0 1.04l2.99 2.69c.13.12.28.17.44.17"/></svg>
